styles/2/Numix/48x48/actions/custom-add-folders-to-archive.svg

<?xml version="1.0" encoding="UTF-8" standalone="no"?>
<svg
   xmlns:dc="http://purl.org/dc/elements/1.1/"
   xmlns:cc="http://creativecommons.org/ns#"
   xmlns:rdf="http://www.w3.org/1999/02/22-rdf-syntax-ns#"
   xmlns:svg="http://www.w3.org/2000/svg"
   xmlns="http://www.w3.org/2000/svg"
   xmlns:sodipodi="http://sodipodi.sourceforge.net/DTD/sodipodi-0.dtd"
   xmlns:inkscape="http://www.inkscape.org/namespaces/inkscape"
   width="48"
   height="48"
   viewBox="0 0 48 48"
   id="svg2"
   version="1.1"
   inkscape:version="0.91 r"
   sodipodi:docname="custom-add-folders-to-archive.svg">
  <metadata
     id="metadata20">
    <rdf:RDF>
      <cc:Work
         rdf:about="">
        <dc:format>image/svg+xml</dc:format>
        <dc:type
           rdf:resource="http://purl.org/dc/dcmitype/StillImage" />
      </cc:Work>
    </rdf:RDF>
  </metadata>
  <defs
     id="defs18" />
  <sodipodi:namedview
     pagecolor="#ffffff"
     bordercolor="#666666"
     borderopacity="1"
     objecttolerance="10"
     gridtolerance="10"
     guidetolerance="10"
     inkscape:pageopacity="0"
     inkscape:pageshadow="2"
     inkscape:window-width="1366"
     inkscape:window-height="747"
     id="namedview16"
     showgrid="false"
     inkscape:zoom="6.9532168"
     inkscape:cx="-6.6059687"
     inkscape:cy="40.202544"
     inkscape:window-x="0"
     inkscape:window-y="21"
     inkscape:window-maximized="1"
     inkscape:current-layer="svg2">
    <inkscape:grid
       type="xygrid"
       id="grid2997" />
  </sodipodi:namedview>
  <path
     style="font-size:medium;font-style:normal;font-variant:normal;font-weight:normal;font-stretch:normal;text-indent:0;text-align:start;text-decoration:none;line-height:normal;letter-spacing:normal;word-spacing:normal;text-transform:none;direction:ltr;block-progression:tb;writing-mode:lr-tb;text-anchor:start;baseline-shift:baseline;color:replacecolour3;fill:replacecolour1;fill-opacity:1;fill-rule:nonzero;stroke:none;stroke-width:1;marker:none;visibility:visible;display:inline;overflow:visible;enable-background:accumulate;font-family:Sans;-inkscape-font-specification:Sans"
     d="m 5,18 c -1,0 -2,1 -2,2 l 0,1 -1,0 c -1,0 -2.005569,0.949207 -2,2 l 0,21 c 1.28e-4,1.120734 1.037763,1.9999 2.1875,2 l 33.625,0 C 37,46 38,45 38,44 l 0,-18 c 0,-1 -1,-2 -2,-2 l -2,0 0,-4 c 0,-1 -1,-2 -2,-2 z"
     id="path3770-1"
     inkscape:connector-curvature="0"
     sodipodi:nodetypes="sscsccccccccsss" />
  <path
     inkscape:connector-curvature="0"
     style="font-size:medium;font-style:normal;font-variant:normal;font-weight:normal;font-stretch:normal;text-indent:0;text-align:start;text-decoration:none;line-height:normal;letter-spacing:normal;word-spacing:normal;text-transform:none;direction:ltr;block-progression:tb;writing-mode:lr-tb;text-anchor:start;baseline-shift:baseline;color:replacecolour3;fill:replacecolour3;fill-opacity:1.;fill-rule:nonzero;stroke:none;stroke-width:1;marker:none;visibility:visible;display:inline;overflow:visible;enable-background:accumulate;font-family:Sans;-inkscape-font-specification:Sans"
     d="m 5,18 c -1,0 -2,1 -2,2 l 0,1 -1,0 c -1,0 -2.005569,0.949207 -2,2 l 0,21 c 1.28e-4,1.120734 1.037763,1.9999 2.1875,2 l 33.625,0 C 37,46 38,45 38,44 l 0,-18 c 0,-1 -1,-2 -2,-2 l -2,0 0,-4 c 0,-1 -1,-2 -2,-2 z m -3,4 19,0 c 0.507314,0 1,0.494167 1,1 l 0,2 14,0 c 0.540858,0 1,0.471809 1,1 l 0,18 c 0,0.553755 -0.452115,1 -1,1 L 2,45 C 1.487274,45 1,44.553754 1,44 L 1,23 c 0,-0.543318 0.479042,-1 1,-1 z"
     id="path3779-2"
     sodipodi:nodetypes="sscscccsssscsssssscssssssss" />
  <path
     style="font-style:normal;font-variant:normal;font-weight:normal;font-stretch:normal;font-size:medium;line-height:normal;font-family:Sans;-inkscape-font-specification:Sans;text-indent:0;text-align:start;text-decoration:none;text-decoration-line:none;letter-spacing:normal;word-spacing:normal;text-transform:none;direction:ltr;block-progression:tb;writing-mode:lr-tb;baseline-shift:baseline;text-anchor:start;display:inline;overflow:visible;visibility:visible;fill-opacity:0.10196079;fill-rule:nonzero;stroke:none;stroke-width:1;marker:none;enable-background:accumulate;fill:#000000"
     d="m 5,18 c -1,0 -2,1 -2,2 l 0,1 -1,0 c -1,0 -2.005569,0.949207 -2,2 l 0,21 c 1.28e-4,1.120734 1.037763,1.9999 2.1875,2 l 33.625,0 c 0.296875,0 0.583008,-0.07813 0.84375,-0.1875 0.651855,-0.273438 1.164185,-0.822266 1.3125,-1.4375 C 37.998413,44.251953 38,44.125 38,44 L 38,26 C 38,25.75 37.921875,25.484375 37.8125,25.25 37.484375,24.546875 36.75,24 36,24 l -2,0 0,-4 c 0,-1 -1,-2 -2,-2 L 5,18 Z"
     id="path3041"
     inkscape:connector-curvature="0" />
  <path
     style="font-style:normal;font-variant:normal;font-weight:normal;font-stretch:normal;font-size:medium;line-height:normal;font-family:Sans;-inkscape-font-specification:Sans;text-indent:0;text-align:start;text-decoration:none;text-decoration-line:none;letter-spacing:normal;word-spacing:normal;text-transform:none;direction:ltr;block-progression:tb;writing-mode:lr-tb;baseline-shift:baseline;text-anchor:start;display:inline;overflow:visible;visibility:visible;fill-opacity:1;fill-rule:nonzero;stroke:none;stroke-width:1;marker:none;enable-background:accumulate"
     d="m 15,2 c -1,0 -2,1 -2,2 l 0,1 -1,0 C 11,5 9.994431,5.949207 10,7 l 0,21 c 1.28e-4,1.120734 1.037763,1.9999 2.1875,2 l 33.625,0 C 47,30 48,29 48,28 L 48,10 C 48,9 47,8 46,8 L 44,8 44,4 C 44,3 43,2 42,2 Z"
     id="path3770"
     inkscape:connector-curvature="0"
     sodipodi:nodetypes="sscsccccccccsss" />
  <path
     inkscape:connector-curvature="0"
     style="font-size:medium;font-style:normal;font-variant:normal;font-weight:normal;font-stretch:normal;text-indent:0;text-align:start;text-decoration:none;line-height:normal;letter-spacing:normal;word-spacing:normal;text-transform:none;direction:ltr;block-progression:tb;writing-mode:lr-tb;text-anchor:start;baseline-shift:baseline;color:replacecolour3;fill:replacecolour3;fill-opacity:1.;fill-rule:nonzero;stroke:none;stroke-width:1;marker:none;visibility:visible;display:inline;overflow:visible;enable-background:accumulate;font-family:Sans;-inkscape-font-specification:Sans"
     d="m 15,2 c -1,0 -2,1 -2,2 l 0,1 -1,0 C 11,5 9.994431,5.949207 10,7 l 0,21 c 1.28e-4,1.120734 1.037763,1.9999 2.1875,2 l 33.625,0 C 47,30 48,29 48,28 L 48,10 C 48,9 47,8 46,8 L 44,8 44,4 C 44,3 43,2 42,2 z m -3,4 19,0 c 0.507314,0 1,0.494167 1,1 l 0,2 14,0 c 0.540858,0 1,0.471809 1,1 l 0,18 c 0,0.553755 -0.452115,1 -1,1 l -34,0 c -0.512726,0 -1,-0.446246 -1,-1 L 11,7 c 0,-0.543318 0.479042,-1 1,-1 z"
     id="path3779"
     sodipodi:nodetypes="sscscccsssscsssssscssssssss" />
  <path
     style="fill:#859900"
     d="M 46 30 L 38 30 L 38 22 L 30 22 L 30 30 L 22 30 L 22 38 L 30 38 L 30 46 L 38 46 L 38 38 L 46 38 Z "
     id="path14" />
</svg>

<?xml version="1.0" encoding="UTF-8" standalone="no"?>
<svg
   xmlns:dc="http://purl.org/dc/elements/1.1/"
   xmlns:cc="http://creativecommons.org/ns#"
   xmlns:rdf="http://www.w3.org/1999/02/22-rdf-syntax-ns#"
   xmlns:svg="http://www.w3.org/2000/svg"
   xmlns="http://www.w3.org/2000/svg"
   xmlns:sodipodi="http://sodipodi.sourceforge.net/DTD/sodipodi-0.dtd"
   xmlns:inkscape="http://www.inkscape.org/namespaces/inkscape"
   width="48"
   height="48"
   viewBox="0 0 48 48"
   id="svg2"
   version="1.1"
   inkscape:version="0.48.5 r10040"
   sodipodi:docname="add-folders-to-archive.svg">
  <metadata
     id="metadata20">
    <rdf:RDF>
      <cc:Work
         rdf:about="">
        <dc:format>image/svg+xml</dc:format>
        <dc:type
           rdf:resource="http://purl.org/dc/dcmitype/StillImage" />
      </cc:Work>
    </rdf:RDF>
  </metadata>
  <defs
     id="defs18" />
  <sodipodi:namedview
     pagecolor="#ffffff"
     bordercolor="#666666"
     borderopacity="1"
     objecttolerance="10"
     gridtolerance="10"
     guidetolerance="10"
     inkscape:pageopacity="0"
     inkscape:pageshadow="2"
     inkscape:window-width="1280"
     inkscape:window-height="969"
     id="namedview16"
     showgrid="false"
     inkscape:zoom="1.7383042"
     inkscape:cx="-31.380688"
     inkscape:cy="69.308351"
     inkscape:window-x="0"
     inkscape:window-y="0"
     inkscape:window-maximized="1"
     inkscape:current-layer="svg2">
    <inkscape:grid
       type="xygrid"
       id="grid2997" />
  </sodipodi:namedview>
  <path
     style="font-size:medium;font-style:normal;font-variant:normal;font-weight:normal;font-stretch:normal;text-indent:0;text-align:start;text-decoration:none;line-height:normal;letter-spacing:normal;word-spacing:normal;text-transform:none;direction:ltr;block-progression:tb;writing-mode:lr-tb;text-anchor:start;baseline-shift:baseline;color:replacecolour3;fill:replacecolour1;fill-opacity:1;fill-rule:nonzero;stroke:none;stroke-width:1;marker:none;visibility:visible;display:inline;overflow:visible;enable-background:accumulate;font-family:Sans;-inkscape-font-specification:Sans"
     d="m 5,18 c -1,0 -2,1 -2,2 l 0,1 -1,0 c -1,0 -2.005569,0.949207 -2,2 l 0,21 c 1.28e-4,1.120734 1.037763,1.9999 2.1875,2 l 33.625,0 C 37,46 38,45 38,44 l 0,-18 c 0,-1 -1,-2 -2,-2 l -2,0 0,-4 c 0,-1 -1,-2 -2,-2 z"
     id="path3770-1"
     inkscape:connector-curvature="0"
     sodipodi:nodetypes="sscsccccccccsss" />
  <path
     inkscape:connector-curvature="0"
     style="font-size:medium;font-style:normal;font-variant:normal;font-weight:normal;font-stretch:normal;text-indent:0;text-align:start;text-decoration:none;line-height:normal;letter-spacing:normal;word-spacing:normal;text-transform:none;direction:ltr;block-progression:tb;writing-mode:lr-tb;text-anchor:start;baseline-shift:baseline;color:replacecolour3;fill:replacecolour3;fill-opacity:1.;fill-rule:nonzero;stroke:none;stroke-width:1;marker:none;visibility:visible;display:inline;overflow:visible;enable-background:accumulate;font-family:Sans;-inkscape-font-specification:Sans"
     d="m 5,18 c -1,0 -2,1 -2,2 l 0,1 -1,0 c -1,0 -2.005569,0.949207 -2,2 l 0,21 c 1.28e-4,1.120734 1.037763,1.9999 2.1875,2 l 33.625,0 C 37,46 38,45 38,44 l 0,-18 c 0,-1 -1,-2 -2,-2 l -2,0 0,-4 c 0,-1 -1,-2 -2,-2 z m -3,4 19,0 c 0.507314,0 1,0.494167 1,1 l 0,2 14,0 c 0.540858,0 1,0.471809 1,1 l 0,18 c 0,0.553755 -0.452115,1 -1,1 L 2,45 C 1.487274,45 1,44.553754 1,44 L 1,23 c 0,-0.543318 0.479042,-1 1,-1 z"
     id="path3779-2"
     sodipodi:nodetypes="sscscccsssscsssssscssssssss" />
  <path
     style="font-size:medium;font-style:normal;font-variant:normal;font-weight:normal;font-stretch:normal;text-indent:0;text-align:start;text-decoration:none;line-height:normal;letter-spacing:normal;word-spacing:normal;text-transform:none;direction:ltr;block-progression:tb;writing-mode:lr-tb;text-anchor:start;baseline-shift:baseline;color:replacecolour3;fill:replacecolour3;fill-opacity:0.10196079;fill-rule:nonzero;stroke:none;stroke-width:1;marker:none;visibility:visible;display:inline;overflow:visible;enable-background:accumulate;font-family:Sans;-inkscape-font-specification:Sans"
     d="M 5 18 C 4 18 3 19 3 20 L 3 21 L 2 21 C 1 21 -0.005569 21.949207 0 23 L 0 44 C 0.000128 45.120734 1.037763 45.9999 2.1875 46 L 35.8125 46 C 36.109375 46 36.395508 45.921875 36.65625 45.8125 C 37.308105 45.539062 37.820435 44.990234 37.96875 44.375 C 37.998413 44.251953 38 44.125 38 44 L 38 26 C 38 25.75 37.921875 25.484375 37.8125 25.25 C 37.484375 24.546875 36.75 24 36 24 L 34 24 L 34 20 C 34 19 33 18 32 18 L 5 18 z "
     id="path3041" />
  <path
     style="font-size:medium;font-style:normal;font-variant:normal;font-weight:normal;font-stretch:normal;text-indent:0;text-align:start;text-decoration:none;line-height:normal;letter-spacing:normal;word-spacing:normal;text-transform:none;direction:ltr;block-progression:tb;writing-mode:lr-tb;text-anchor:start;baseline-shift:baseline;color:replacecolour3;fill:replacecolour1;fill-opacity:1;fill-rule:nonzero;stroke:none;stroke-width:1;marker:none;visibility:visible;display:inline;overflow:visible;enable-background:accumulate;font-family:Sans;-inkscape-font-specification:Sans"
     d="m 15,2 c -1,0 -2,1 -2,2 l 0,1 -1,0 C 11,5 9.994431,5.949207 10,7 l 0,21 c 1.28e-4,1.120734 1.037763,1.9999 2.1875,2 l 33.625,0 C 47,30 48,29 48,28 L 48,10 C 48,9 47,8 46,8 L 44,8 44,4 C 44,3 43,2 42,2 z"
     id="path3770"
     inkscape:connector-curvature="0"
     sodipodi:nodetypes="sscsccccccccsss" />
  <path
     inkscape:connector-curvature="0"
     style="font-size:medium;font-style:normal;font-variant:normal;font-weight:normal;font-stretch:normal;text-indent:0;text-align:start;text-decoration:none;line-height:normal;letter-spacing:normal;word-spacing:normal;text-transform:none;direction:ltr;block-progression:tb;writing-mode:lr-tb;text-anchor:start;baseline-shift:baseline;color:replacecolour3;fill:replacecolour3;fill-opacity:1.;fill-rule:nonzero;stroke:none;stroke-width:1;marker:none;visibility:visible;display:inline;overflow:visible;enable-background:accumulate;font-family:Sans;-inkscape-font-specification:Sans"
     d="m 15,2 c -1,0 -2,1 -2,2 l 0,1 -1,0 C 11,5 9.994431,5.949207 10,7 l 0,21 c 1.28e-4,1.120734 1.037763,1.9999 2.1875,2 l 33.625,0 C 47,30 48,29 48,28 L 48,10 C 48,9 47,8 46,8 L 44,8 44,4 C 44,3 43,2 42,2 z m -3,4 19,0 c 0.507314,0 1,0.494167 1,1 l 0,2 14,0 c 0.540858,0 1,0.471809 1,1 l 0,18 c 0,0.553755 -0.452115,1 -1,1 l -34,0 c -0.512726,0 -1,-0.446246 -1,-1 L 11,7 c 0,-0.543318 0.479042,-1 1,-1 z"
     id="path3779"
     sodipodi:nodetypes="sscscccsssscsssssscssssssss" />
  <path
     style="fill:#859900"
     d="M 46 30 L 38 30 L 38 22 L 30 22 L 30 30 L 22 30 L 22 38 L 30 38 L 30 46 L 38 46 L 38 38 L 46 38 Z "
     id="path14" />
</svg>
